icons/desktop/16/svg/globe-warning-16.svg

<svg width="16" height="16" viewBox="0 0 16 16" fill="none" xmlns="http://www.w3.org/2000/svg">
<g clip-path="url(#clip0_13802_57516)">
<path fill-rule="evenodd" clip-rule="evenodd" d="M10.4199 7.34375C10.902 6.516 12.0981 6.51595 12.5801 7.34375L15.8291 12.9229C16.2761 13.6918 15.799 14.683 14.916 14.791C13.65 14.947 12.5 15 11.5 15C10.265 15 9.12561 14.918 8.09961 14.793C7.20681 14.6838 6.71893 13.6988 7.17188 12.9209L10.4199 7.34375ZM11.5 12.75C11.1548 12.75 10.875 13.0298 10.875 13.375C10.875 13.7202 11.1548 14 11.5 14C11.8451 14 12.125 13.7202 12.125 13.375C12.125 13.0299 11.8451 12.75 11.5 12.75ZM11.5 9.25C11.1548 9.25 10.875 9.52984 10.875 9.875V11.375C10.875 11.7202 11.1548 12 11.5 12C11.8451 12 12.125 11.7202 12.125 11.375V9.875C12.125 9.52986 11.8451 9.25003 11.5 9.25Z" fill="black"/>
<path fill-rule="evenodd" clip-rule="evenodd" d="M7 -0.000976562C10.859 -0.000976562 14 3.13902 14 6.99902C14 7.09202 13.9903 7.18241 13.9863 7.27441L13.6602 6.71387C13.3502 6.18189 12.8666 5.81109 12.3076 5.62109C11.8586 3.89811 10.6068 2.50014 8.96484 1.86914C9.72984 3.00014 10.2345 4.28951 10.4385 5.64551C10.4833 5.65252 10.5274 5.66393 10.5723 5.6709C10.0663 5.87289 9.62684 6.22188 9.33984 6.71484L9.04102 7.22949C9.04302 7.15249 9.05176 7.077 9.05176 7V6.99707C7.68691 6.8721 6.31407 6.8721 4.94922 6.99707V7C4.94922 8.67091 5.50419 10.2817 6.49609 11.5986L6.0918 12.292C5.80688 12.7829 5.71514 13.3428 5.78906 13.8877C2.50606 13.3117 0 10.446 0 7C1.26756e-05 3.14001 3.14101 -0.000976562 7 -0.000976562ZM3.45801 7.18359C2.81008 7.28658 2.16818 7.42008 1.53125 7.58105C1.75227 9.66703 3.14517 11.4039 5.03516 12.1309C4.05117 10.6779 3.49401 8.96258 3.45801 7.18359ZM5.03516 1.86914C3.26616 2.54914 1.9358 4.11544 1.5918 6.02344C2.24362 5.87148 2.89971 5.7415 3.56152 5.64551C3.76552 4.28951 4.26916 3.00014 5.03516 1.86914ZM7 1.79297C6.04011 2.82685 5.3865 4.10181 5.10645 5.47363C6.36713 5.37468 7.63287 5.37368 8.89355 5.47363C8.6135 4.10181 7.95989 2.82685 7 1.79297Z" fill="black"/>
</g>
<defs>
<clipPath id="clip0_13802_57516">
<rect width="16" height="16" fill="white"/>
</clipPath>
</defs>
</svg>

<!-- This Source Code Form is subject to the terms of the Mozilla Public
   - License, v. 2.0. If a copy of the MPL was not distributed with this
   - file, You can obtain one at http://mozilla.org/MPL/2.0/. -->
<svg xmlns="http://www.w3.org/2000/svg" width="16" height="16" fill="context-fill" fill-opacity="context-fill-opacity" viewBox="0 0 16 16">
    <g fill-rule="evenodd" clip-path="url(#clip0_13802_57516)" clip-rule="evenodd">
        <path d="M10.42 7.344a1.25 1.25 0 0 1 2.16 0l3.25 5.579c.446.769-.031 1.76-.914 1.868a28 28 0 0 1-6.816.002 1.25 1.25 0 0 1-.928-1.872zm1.08 5.406a.625.625 0 1 0 0 1.25.625.625 0 0 0 0-1.25m0-3.5a.625.625 0 0 0-.625.625v1.5a.625.625 0 1 0 1.25 0v-1.5a.625.625 0 0 0-.625-.625" />
        <path d="M7-.001c3.859 0 7 3.14 7 7 0 .093-.01.183-.014.275l-.326-.56a2.47 2.47 0 0 0-1.352-1.093A5.5 5.5 0 0 0 8.965 1.87a9.2 9.2 0 0 1 1.473 3.777c.045.007.09.018.134.025A2.46 2.46 0 0 0 9.34 6.715l-.299.514c.002-.077.01-.152.01-.229v-.003a22.5 22.5 0 0 0-4.102 0V7a7.65 7.65 0 0 0 1.547 4.599l-.404.693a2.5 2.5 0 0 0-.303 1.596C2.506 13.312 0 10.446 0 7 0 3.14 3.141-.001 7-.001M3.458 7.184q-.972.155-1.927.397a5.51 5.51 0 0 0 3.504 4.55 9.16 9.16 0 0 1-1.577-4.947m1.577-5.315a5.51 5.51 0 0 0-3.443 4.154 24 24 0 0 1 1.97-.377 9.2 9.2 0 0 1 1.473-3.777M7 1.793a7.67 7.67 0 0 0-1.894 3.68c1.261-.098 2.527-.1 3.788 0A7.67 7.67 0 0 0 7 1.794" />
    </g>
</svg>
